!! 00000] TT[WS
!!!OTL: Wuge fangyang
!!!ARE: Asia, China, Shanxi LÅliang
!! Ethnic Group: Han
!! WII, 42 (2)
!!!SCT: J0457
!!!YEM: Copyright 1995, estate of Helmut Schaffrath.
**kern
*ICvox
*Ivox
*M2/4
*k[b-]
*F:
{8cc
8cc
8cc
16ff
=1
8dd
8cc
8dd
8cc
=2
4g
8a
8a
=3
8dd
8cc
8.g
16a
=4
8g
8d
4c}
=5
{8f
8f
8f
8g
=6
8cc
8cc
8cc
8ff
=7
8dd
8cc
8ff
8cc
=8
8b-
8a
8g
8f
=9
2c}
==
!!!AGN: Xiaodiao. Laodong, Fangyang
!!!ONB: ESAC (Essen Associative Code) Database: CHINA
!!!AMT: simple duple
!!!AIN: vox
!!!EED: Helmut Schaffrath
!!!EEV: 1.0
*-
